images/icons.svg/Client-one.svg

<svg width="168" height="88" viewBox="0 0 168 88" fill="none" xmlns="http://www.w3.org/2000/svg">
<g id="Client 1">
<rect id="Rectangle 9" x="0.5" y="0.5" width="167" height="87" rx="3.5" stroke="#8E8F99"/>
<g id="Logo ">
<g id="group">
<path id="Union" fill-rule="evenodd" clip-rule="evenodd" d="M70 23L77.0078 29.6764L64 29.6687V62.0609H98V49.6758L105 56.3448V23H70ZM97.6924 48.8922L77.8226 29.962H97.6924V48.8922ZM91.5231 57.3227H69.3801V35.5373H70.9453V55.8475H91.5231V57.3227ZM73.7959 68.0611L72.9707 66.3643H72.2896L73.4858 68.6104V69.919H74.1035V68.6104L75.2998 66.3643H74.6211L73.7959 68.0611ZM76.8379 66.3643H76.9844L78.3271 69.919H77.6826L77.395 69.0865H76.0189L75.7319 69.919H75.0898L76.4277 66.3643H76.5718H76.8379ZM76.1864 68.6007H77.2271L76.7062 67.0927L76.1864 68.6007ZM80.4821 68.0117C80.4553 67.9776 80.4295 67.9445 80.4048 67.9122C80.3136 67.7917 80.2428 67.6754 80.1924 67.5631C80.1419 67.4491 80.1167 67.3319 80.1167 67.2115C80.1167 67.026 80.1549 66.8665 80.2314 66.733C80.3079 66.5995 80.4162 66.497 80.5562 66.4254C80.6961 66.3521 80.8597 66.3155 81.0469 66.3155C81.2275 66.3155 81.383 66.3521 81.5132 66.4254C81.645 66.497 81.7459 66.5922 81.8159 66.711C81.8875 66.8298 81.9233 66.96 81.9233 67.1016C81.9233 67.2139 81.903 67.3165 81.8623 67.4093C81.8216 67.502 81.7655 67.5867 81.6938 67.6632C81.6222 67.7397 81.5392 67.8121 81.4448 67.8805L81.1979 68.0602L81.9018 68.8909C81.925 68.8453 81.946 68.7973 81.9648 68.7472C82.0251 68.5909 82.0552 68.4176 82.0552 68.2271H82.563C82.563 68.3997 82.5459 68.5632 82.5117 68.7179C82.4792 68.8725 82.4263 69.0157 82.353 69.1475C82.3233 69.2022 82.2897 69.2545 82.2522 69.3044L82.7729 69.919H82.0918L81.8852 69.676C81.7734 69.7609 81.6518 69.8272 81.5205 69.8751C81.348 69.9369 81.1641 69.9679 80.9688 69.9679C80.7327 69.9679 80.5285 69.9247 80.356 69.8385C80.1834 69.7522 80.05 69.6334 79.9556 69.482C79.8628 69.3306 79.8164 69.1573 79.8164 68.962C79.8164 68.8171 79.8465 68.6902 79.9067 68.5811C79.967 68.4705 80.0492 68.3679 80.1533 68.2735C80.2495 68.1862 80.3591 68.099 80.4821 68.0117ZM80.7738 68.3689L80.7002 68.4224C80.6139 68.4924 80.5496 68.56 80.5073 68.6251C80.4666 68.6886 80.4398 68.7472 80.4268 68.8009C80.4137 68.8546 80.4072 68.9018 80.4072 68.9425C80.4072 69.0466 80.4292 69.141 80.4731 69.2257C80.5187 69.3103 80.5846 69.3778 80.6709 69.4283C80.7588 69.4771 80.8654 69.5015 80.9907 69.5015C81.1258 69.5015 81.2568 69.4714 81.3838 69.4112C81.4474 69.3802 81.5078 69.3429 81.5648 69.2992L80.7738 68.3689ZM80.9143 67.7196L81.1323 67.5728C81.2349 67.5045 81.3081 67.4377 81.3521 67.3726C81.396 67.3059 81.418 67.2229 81.418 67.1236C81.418 67.039 81.3854 66.9609 81.3203 66.8892C81.2552 66.8176 81.1632 66.7818 81.0444 66.7818C80.9614 66.7818 80.8914 66.8013 80.8345 66.8404C80.7775 66.8778 80.7344 66.9283 80.7051 66.9918C80.6774 67.0536 80.6636 67.1228 80.6636 67.1993C80.6636 67.2725 80.6823 67.3482 80.7197 67.4263C80.7572 67.5028 80.8084 67.5834 80.8735 67.668C80.8868 67.685 80.9004 67.7021 80.9143 67.7196ZM87.1333 68.7618H86.5229C86.505 68.9164 86.4676 69.0474 86.4106 69.1549C86.3553 69.2607 86.2731 69.3412 86.1641 69.3966C86.0566 69.4519 85.9159 69.4796 85.7417 69.4796C85.5985 69.4796 85.4756 69.4511 85.373 69.3941C85.2705 69.3372 85.1859 69.2566 85.1191 69.1524C85.054 69.0483 85.0052 68.9237 84.9727 68.7789C84.9417 68.6324 84.9263 68.4696 84.9263 68.2906V67.9903C84.9263 67.8015 84.9434 67.6339 84.9775 67.4874C85.0133 67.3393 85.0662 67.2148 85.1362 67.1138C85.2062 67.0129 85.2933 66.9364 85.3975 66.8844C85.5016 66.8323 85.6237 66.8062 85.7637 66.8062C85.9346 66.8062 86.0729 66.8355 86.1787 66.8941C86.2845 66.9511 86.3643 67.0341 86.418 67.1431C86.4733 67.2522 86.5091 67.3832 86.5254 67.5362H87.1357C87.1113 67.2986 87.0446 67.0878 86.9355 66.9039C86.8281 66.72 86.6768 66.5759 86.4814 66.4718C86.2861 66.3676 86.0469 66.3155 85.7637 66.3155C85.5407 66.3155 85.3397 66.3546 85.1606 66.4327C84.9832 66.5108 84.8311 66.6239 84.7041 66.7721C84.5771 66.9185 84.4795 67.0951 84.4111 67.3018C84.3444 67.5085 84.311 67.7397 84.311 67.9952V68.2906C84.311 68.5461 84.3436 68.7773 84.4087 68.984C84.4754 69.1907 84.5715 69.3673 84.6968 69.5138C84.8221 69.6586 84.9727 69.7709 85.1484 69.8507C85.3242 69.9288 85.522 69.9679 85.7417 69.9679C86.0282 69.9679 86.2715 69.9158 86.4717 69.8116C86.6719 69.7074 86.8273 69.565 86.938 69.3844C87.0487 69.2021 87.1138 68.9945 87.1333 68.7618ZM90.5244 68.2393V68.044C90.5244 67.7755 90.4886 67.5354 90.417 67.3238C90.347 67.1106 90.2469 66.9291 90.1167 66.7794C89.9865 66.628 89.8311 66.5133 89.6504 66.4351C89.4697 66.3554 89.2695 66.3155 89.0498 66.3155C88.8317 66.3155 88.6323 66.3554 88.4517 66.4351C88.2726 66.5133 88.1172 66.628 87.9854 66.7794C87.8551 66.9291 87.7542 67.1106 87.6826 67.3238C87.611 67.5354 87.5752 67.7755 87.5752 68.044V68.2393C87.5752 68.5079 87.611 68.7488 87.6826 68.962C87.7559 69.1752 87.8584 69.3567 87.9902 69.5064C88.1221 69.6562 88.2775 69.7709 88.4565 69.8507C88.6372 69.9288 88.8366 69.9679 89.0547 69.9679C89.2744 69.9679 89.4746 69.9288 89.6553 69.8507C89.8359 69.7709 89.9906 69.6562 90.1191 69.5064C90.2493 69.3567 90.3494 69.1752 90.4194 68.962C90.4894 68.7488 90.5244 68.5079 90.5244 68.2393ZM89.9116 68.0391V68.2393C89.9116 68.4379 89.8921 68.6137 89.853 68.7667C89.8156 68.9197 89.7603 69.0491 89.687 69.1549C89.6138 69.259 89.5243 69.338 89.4185 69.3917C89.3127 69.4438 89.1914 69.4698 89.0547 69.4698C88.9196 69.4698 88.7992 69.4438 88.6934 69.3917C88.5876 69.338 88.4964 69.259 88.4199 69.1549C88.3451 69.0491 88.2881 68.9197 88.249 68.7667C88.21 68.6137 88.1904 68.4379 88.1904 68.2393V68.0391C88.1904 67.8406 88.21 67.6656 88.249 67.5142C88.2881 67.3612 88.3442 67.2335 88.4175 67.1309C88.4923 67.0268 88.5827 66.9486 88.6885 66.8966C88.7943 66.8429 88.9147 66.816 89.0498 66.816C89.1849 66.816 89.3062 66.8429 89.4136 66.8966C89.521 66.9486 89.6113 67.0268 89.6846 67.1309C89.7594 67.2335 89.8156 67.3612 89.853 67.5142C89.8921 67.6656 89.9116 67.8406 89.9116 68.0391Z" fill="#8E8F99"/>
</g>
</g>
</g>
</svg>

<svg xmlns="http://www.w3.org/2000/svg" width="168" height="88" fill="none"><rect width="167" height="87" x=".5" y=".5" stroke="#8E8F99" rx="3.5"/><path fill="#8E8F99" fill-rule="evenodd" d="m70 23 7.008 6.676L64 29.67V62.06h34V49.676l7 6.669V23H70Zm27.692 25.892-19.87-18.93h19.87v18.93Zm-6.169 8.43H69.38V35.538h1.565v20.31h20.578v1.476Zm-17.727 10.74-.825-1.698h-.681l1.196 2.246v1.309h.617V68.61l1.197-2.246h-.679l-.825 1.697Zm3.042-1.698h.146l1.343 3.555h-.644l-.288-.832h-1.376l-.287.832h-.642l1.338-3.555H76.838Zm-.652 2.237h1.041l-.52-1.508-.52 1.508Zm4.296-.59a9.549 9.549 0 0 1-.077-.099 1.82 1.82 0 0 1-.213-.349.86.86 0 0 1-.075-.352c0-.185.038-.344.114-.478a.77.77 0 0 1 .325-.308c.14-.073.304-.11.49-.11.181 0 .337.037.467.11a.766.766 0 0 1 .35.984.896.896 0 0 1-.17.254 1.729 1.729 0 0 1-.248.218l-.247.18.704.83a1.407 1.407 0 0 0 .153-.664h.508c0 .173-.017.336-.051.49a1.523 1.523 0 0 1-.26.587l.52.615h-.68l-.207-.243a1.384 1.384 0 0 1-.365.2 1.624 1.624 0 0 1-.551.092c-.236 0-.44-.043-.613-.13a.97.97 0 0 1-.4-.356.975.975 0 0 1-.14-.52c0-.145.03-.272.09-.38.061-.111.143-.214.247-.308.096-.088.206-.175.33-.262Zm.292.358-.074.053a.914.914 0 0 0-.193.203.59.59 0 0 0-.034.6.515.515 0 0 0 .198.203.65.65 0 0 0 .32.073c.135 0 .266-.03.393-.09a1.06 1.06 0 0 0 .18-.112l-.79-.93Zm.14-.65.218-.146a.791.791 0 0 0 .22-.2.444.444 0 0 0 .066-.25.354.354 0 0 0-.374-.342.362.362 0 0 0-.339.21.502.502 0 0 0 .015.435c.037.077.088.157.154.242l.04.052Zm6.22 1.043h-.611a1.108 1.108 0 0 1-.112.393.554.554 0 0 1-.247.242.925.925 0 0 1-.422.083.748.748 0 0 1-.369-.086.707.707 0 0 1-.254-.242 1.192 1.192 0 0 1-.146-.373 2.365 2.365 0 0 1-.047-.488v-.3c0-.19.017-.357.052-.504.035-.148.088-.272.158-.373a.69.69 0 0 1 .261-.23.809.809 0 0 1 .367-.078c.17 0 .309.03.415.088.105.057.185.14.239.25.055.108.091.24.107.392h.61a1.53 1.53 0 0 0-.2-.632 1.128 1.128 0 0 0-.454-.432 1.509 1.509 0 0 0-.717-.156c-.223 0-.424.039-.603.117-.178.078-.33.19-.457.34a1.532 1.532 0 0 0-.293.529c-.067.206-.1.438-.1.693v.296c0 .255.033.486.098.693.066.207.162.383.288.53.125.145.276.257.451.337.176.078.374.117.594.117.286 0 .53-.052.73-.156.2-.105.355-.247.466-.428.11-.182.176-.39.195-.622Zm3.39-.523v-.195c0-.269-.035-.509-.107-.72a1.56 1.56 0 0 0-.3-.545 1.277 1.277 0 0 0-.467-.344c-.18-.08-.38-.12-.6-.12-.218 0-.418.04-.598.12-.18.078-.335.193-.467.344-.13.15-.23.332-.302.545a2.241 2.241 0 0 0-.108.72v.195c0 .269.036.51.108.723a1.6 1.6 0 0 0 .307.544c.132.15.288.265.467.345.18.078.38.117.598.117.22 0 .42-.04.6-.117.18-.08.336-.195.464-.345.13-.15.23-.33.3-.544.07-.213.105-.454.105-.723Zm-.612-.2v.2c0 .199-.02.375-.059.528a1.159 1.159 0 0 1-.166.388.73.73 0 0 1-.269.237.813.813 0 0 1-.363.078.807.807 0 0 1-.362-.078.772.772 0 0 1-.273-.237 1.167 1.167 0 0 1-.171-.388 2.144 2.144 0 0 1-.059-.528v-.2c0-.198.02-.373.059-.525.04-.153.095-.28.169-.383a.728.728 0 0 1 .27-.234.787.787 0 0 1 .362-.081c.135 0 .256.027.364.08.107.053.197.13.27.235.075.103.132.23.169.383.04.152.059.327.059.525Z" clip-rule="evenodd"/></svg>
